ANSW_SVG/WaterSystems/Pipe_Pump.svg

<?xml version="1.0" encoding="UTF-8"?>
<svg id="Layer_2" data-name="Layer 2" xmlns="http://www.w3.org/2000/svg" viewBox="0 0 265.11 130.09">
  <defs>
    <style>
      .cls-1 {
        fill: #acb6dd;
      }
    </style>
  </defs>
  <g id="Pipe_Pump">
    <g>
      <path class="cls-1" d="M34.01,55.64h50.58v-5.7h-50.58v5.7ZM35.01,50.94h48.58v3.7h-48.58v-3.7Z"/>
      <path class="cls-1" d="M264.61,32.58h-11.53v2.5s0,4.11,0,4.11h-2.62l-3.46-3.6v-10.33l-.39-.61-2.48-3.92-.23-.52v-8.17h4.11s2.5,0,2.5,0V0h-40.21v12.03h2.5s4.11,0,4.11,0v4.85l.03,5.17h-5.83v5.69h-24.97v4.94h-33.78v1.52h-3.2v-3.94s-.01-2.5-.01-2.5h-47.94l-.7-1.75v-.04l-.03-.19c-.41-2.7-2.34-4.17-4.19-4.89v-.93h-1.58v-3.81h-1.22v-.78h-10.31v.38H17.67l-.38.12c-1.12.37-10.28,3.47-14.16,7.94H0v57.85h3.13c3.88,4.47,13.03,7.65,14.14,8.02l.39.13h2.63v8.06h-2.38v32.22h240.73v-32.22h-2.51v-4.86h-2.63v-4.14l-.67-.72-6.52-7,.68-.68v-10.69l3.46-3.6h2.62v4.11s0,2.5,0,2.5h12.03v-40.21h-.5ZM3.88,78.66h-.88V26.81h.88v51.85ZM243.39,1h4.12v8.03h-4.12V1ZM242.41,23.63l1.59,2.5v53.09l-1.37,1.37h-.22V23.63ZM218.41,1h23.98v8.03h-23.98V1ZM225.6,16.31h-5.7v-6.28h21v10.2h-2.54v-3.92h-12.76ZM237.36,17.31v70.17h-11.76V17.31h11.76ZM219.9,24.05v-6.73h4.69v70.17h-4.69v-6.44h.05V24.05h-.05ZM238.36,21.23h3.06v63.37h-3.06V21.23ZM213.29,9.03V1h4.12v8.03h-4.12ZM214.1,31.68v-6.63h4.8v55.01h-4.8V31.68ZM194.14,34.55h18.96v25.65h-18.96v-25.65ZM213.1,61.2v14.25h-23.56v-14.25h23.56ZM213.1,31.68v1.87h-18.96v-1.87h18.96ZM155.35,36.19v-.52h33.78v-4.94h4.02v29.46h-4.6v8.49h-33.19v-32.5ZM151.82,37.19h2.53v30.63h-2.53v-30.63ZM149.21,56.21v-12.71l1.61-1v20.54l-1.61-.82v-6.01ZM151.32,70.83h1.03v.86h34.19v6.77h24.56v4.6h5.83l-.03,4.92-.02,2.52h4.98v2.52h-2.28v4.86h-49.34v-4.65h-21l-.04-22.39h2.11ZM151.27,96.22h15.98v3.65h-15.98v-3.65ZM148.21,50.04v5.17h-1.03v-5.17s1.03,0,1.03,0ZM146.14,30.76l.03,18.74v6.71h.01l.07,43.66h-43.93l-.07-42.58v-10.34h-.02l-.03-16.2h43.93ZM99.3,85.49h-4.61v-.34h1.58v-.88c1.09-.42,2.2-1.1,3.02-2.15v3.37ZM99.93,56.83v-8.88h1.31v8.88s-1.31,0-1.31,0ZM98.93,30.19v45.05l-.44,1.11V29.08s.44,1.11.44,1.11ZM94.27,23.43c.97.2,2.92.84,3.22,2.73v52.77c-.29,1.95-2.25,2.6-3.22,2.81V23.43ZM91.47,19.15h.22v2.81h-.22v-2.81ZM93.27,22.96v59.19h-4.6V22.96h4.6ZM91.69,83.15v2.84h-.22v-2.84h.22ZM90.47,83.15v3.62h-4.31v-2.76h2.51v-.86h1.8ZM86.16,18.37h4.31v3.6h-1.8v-.71h-2.51v-2.89ZM85.67,22.26h2v60.75h-2V22.26ZM98.78,88.49v11.38H23.29v-11.38h75.49ZM83.59,84.01v3.48h-48.58v-3.48h48.58ZM35.01,83.01v-5.11h48.58v5.11h-48.58ZM85.16,87.49h-.57v-3.48h.57v3.48ZM33.93,18.74h50.74v15.37h-50.74v-15.37ZM83.91,35.11v.15h-49.47v-.15h49.47ZM33.93,36.26h50.74v1.85h-50.74v-1.85ZM83.91,39.11v.15h-49.47v-.15h49.47ZM33.93,40.26h50.74v1.85h-50.74v-1.85ZM83.91,43.1v.15h-49.47v-.15h49.47ZM33.93,44.25h50.74v1.85h-50.74v-1.85ZM83.91,47.1v.15h-49.47v-.15h49.47ZM33.93,48.25h50.74v9.06h-50.74v-9.06ZM83.91,58.31v.15h-49.47v-.15h49.47ZM33.93,59.46h50.74v1.85h-50.74v-1.85ZM83.91,62.3v.15h-49.47v-.15h49.47ZM33.93,63.45h50.74v1.85h-50.74v-1.85ZM83.91,66.3v.15h-49.47v-.15h49.47ZM33.93,67.45h50.74v1.85h-50.74v-1.85ZM83.91,70.3v.15h-49.47v-.15h49.47ZM33.93,71.45h50.74v11.57h-.07v-6.11h-50.58v6.11h-.08v-11.57ZM33.93,84.01h.08v3.48h-.08v-3.48ZM17.57,18.95v67.65c-2.36-.86-10.38-4-12.69-7.6V26.55c2.31-3.6,10.33-6.74,12.69-7.6ZM18.57,86.81V18.74h14.36v68.07h-14.36ZM255.65,122.07H20.91v-16.19h234.73v16.19ZM255.65,127.09H20.91v-4.02h234.73v4.02ZM254.14,100.87h1.51v4.02H20.91v-4.02h233.22ZM253.14,96.01v3.86h-30.56v-3.86h30.56ZM250.51,95.01h-25.65v-4.08h25.65v4.08ZM250.39,89.93h-25.14l.87-1.44h12.24v-2.89h4.06v-4.01h.21l7.77,8.34ZM248.9,63.48l-3.9,4.05v-29.7l3.9,4.05v21.6ZM255.08,63.18h-5.18v-21h5.18v21ZM264.11,69.79h-8.03v-4.12h8.03v4.12ZM264.11,64.67h-8.03v-23.98h8.03v23.98ZM264.11,39.7h-8.03v-4.12h8.03v4.12Z"/>
    </g>
  </g>
</svg>

<?xml version="1.0" encoding="UTF-8" standalone="no"?>
<svg
   id="Layer_2"
   data-name="Layer 2"
   viewBox="0 0 265.11 130.09"
   version="1.1"
   sodipodi:docname="Pipe_Pump.svg"
   inkscape:version="1.4 (86a8ad7, 2024-10-11)"
   xmlns:inkscape="http://www.inkscape.org/namespaces/inkscape"
   xmlns:sodipodi="http://sodipodi.sourceforge.net/DTD/sodipodi-0.dtd"
   xmlns="http://www.w3.org/2000/svg"
   xmlns:svg="http://www.w3.org/2000/svg">
  <sodipodi:namedview
     id="namedview2"
     pagecolor="#ffffff"
     bordercolor="#000000"
     borderopacity="0.25"
     inkscape:showpageshadow="2"
     inkscape:pageopacity="0.0"
     inkscape:pagecheckerboard="0"
     inkscape:deskcolor="#d1d1d1"
     inkscape:zoom="13.632078"
     inkscape:cx="132.51831"
     inkscape:cy="65.030438"
     inkscape:window-width="3840"
     inkscape:window-height="2054"
     inkscape:window-x="-11"
     inkscape:window-y="-11"
     inkscape:window-maximized="1"
     inkscape:current-layer="Layer_2" />
  <defs
     id="defs1">
    <style
       id="style1">
      .cls-1 {
        fill: #acb6dd;
      }
    </style>
  </defs>
  <g
     id="Pipe_Pump"
     transform="matrix(-1,0,0,1,265.1,0)">
    <g
       id="g2">
      <path
         class="cls-1"
         d="m 34.01,55.64 h 50.58 v -5.7 H 34.01 Z m 1,-4.7 h 48.58 v 3.7 H 35.01 Z"
         id="path1" />
      <path
         class="cls-1"
         d="m 264.61,32.58 h -11.53 v 2.5 c 0,0 0,4.11 0,4.11 h -2.62 L 247,35.59 V 25.26 l -0.39,-0.61 -2.48,-3.92 -0.23,-0.52 v -8.17 h 4.11 c 0,0 2.5,0 2.5,0 V 0 H 210.3 v 12.03 h 2.5 c 0,0 4.11,0 4.11,0 v 4.85 l 0.03,5.17 h -5.83 v 5.69 h -24.97 v 4.94 h -33.78 v 1.52 h -3.2 v -3.94 c 0,0 -0.01,-2.5 -0.01,-2.5 h -47.94 l -0.7,-1.75 v -0.04 l -0.03,-0.19 c -0.41,-2.7 -2.34,-4.17 -4.19,-4.89 V 19.96 H 94.71 V 16.15 H 93.49 V 15.37 H 83.18 v 0.38 H 17.67 l -0.38,0.12 C 16.17,16.24 7.01,19.34 3.13,23.81 H 0 v 57.85 h 3.13 c 3.88,4.47 13.03,7.65 14.14,8.02 l 0.39,0.13 h 2.63 v 8.06 h -2.38 v 32.22 H 258.64 V 97.87 h -2.51 v -4.86 h -2.63 v -4.14 l -0.67,-0.72 -6.52,-7 0.68,-0.68 V 69.78 l 3.46,-3.6 h 2.62 v 4.11 c 0,0 0,2.5 0,2.5 H 265.1 V 32.58 h -0.5 z M 3.88,78.66 H 3 V 26.81 H 3.88 Z M 243.39,1 h 4.12 v 8.03 h -4.12 z m -0.98,22.63 1.59,2.5 v 53.09 l -1.37,1.37 h -0.22 z M 218.41,1 h 23.98 v 8.03 h -23.98 z m 7.19,15.31 h -5.7 v -6.28 h 21 v 10.2 h -2.54 v -3.92 z m 11.76,1 V 87.48 H 225.6 V 17.31 Z m -17.46,6.74 v -6.73 h 4.69 v 70.17 h -4.69 v -6.44 h 0.05 v -57 z m 18.46,-2.82 h 3.06 V 84.6 h -3.06 z M 213.29,9.03 V 1 h 4.12 v 8.03 z m 0.81,22.65 v -6.63 h 4.8 v 55.01 h -4.8 z m -19.96,2.87 H 213.1 V 60.2 H 194.14 Z M 213.1,61.2 V 75.45 H 189.54 V 61.2 Z m 0,-29.52 v 1.87 h -18.96 v -1.87 z m -57.75,4.51 v -0.52 h 33.78 v -4.94 h 4.02 v 29.46 h -4.6 v 8.49 h -33.19 v -32.5 z m -3.53,1 h 2.53 v 30.63 h -2.53 z m -2.61,19.02 V 43.5 l 1.61,-1 v 20.54 l -1.61,-0.82 z m 2.11,14.62 h 1.03 v 0.86 h 34.19 v 6.77 h 24.56 v 4.6 h 5.83 l -0.03,4.92 -0.02,2.52 h 4.98 v 2.52 h -2.28 v 4.86 h -49.34 v -4.65 h -21 L 149.2,70.84 h 2.11 z m -0.05,25.39 h 15.98 v 3.65 h -15.98 z m -3.06,-46.18 v 5.17 h -1.03 v -5.17 z m -2.07,-19.28 0.03,18.74 v 6.71 h 0.01 l 0.07,43.66 H 102.32 L 102.25,57.29 V 46.95 h -0.02 l -0.03,-16.2 h 43.93 z M 99.3,85.49 h -4.61 v -0.34 h 1.58 v -0.88 c 1.09,-0.42 2.2,-1.1 3.02,-2.15 v 3.37 z m 0.63,-28.66 v -8.88 h 1.31 v 8.88 z m -1,-26.64 v 45.05 l -0.44,1.11 V 29.08 c 0,0 0.44,1.11 0.44,1.11 z m -4.66,-6.76 c 0.97,0.2 2.92,0.84 3.22,2.73 v 52.77 c -0.29,1.95 -2.25,2.6 -3.22,2.81 z m -2.8,-4.28 h 0.22 v 2.81 h -0.22 z m 1.8,3.81 v 59.19 h -4.6 V 22.96 Z m -1.58,60.19 v 2.84 h -0.22 v -2.84 z m -1.22,0 v 3.62 h -4.31 v -2.76 h 2.51 V 83.15 Z M 86.16,18.37 h 4.31 v 3.6 h -1.8 v -0.71 h -2.51 z m -0.49,3.89 h 2 v 60.75 h -2 z M 98.78,88.49 V 99.87 H 23.29 V 88.49 Z M 83.59,84.01 v 3.48 H 35.01 v -3.48 z m -48.58,-1 V 77.9 h 48.58 v 5.11 z m 50.15,4.48 h -0.57 v -3.48 h 0.57 z M 33.93,18.74 H 84.67 V 34.11 H 33.93 Z m 49.98,16.37 v 0.15 H 34.44 v -0.15 z m -49.98,1.15 h 50.74 v 1.85 H 33.93 Z m 49.98,2.85 v 0.15 H 34.44 v -0.15 z m -49.98,1.15 h 50.74 v 1.85 H 33.93 Z m 49.98,2.84 v 0.15 H 34.44 V 43.1 Z M 33.93,44.25 H 84.67 V 46.1 H 33.93 Z m 49.98,2.85 v 0.15 H 34.44 V 47.1 Z m -49.98,1.15 h 50.74 v 9.06 H 33.93 Z m 49.98,10.06 v 0.15 H 34.44 v -0.15 z m -49.98,1.15 h 50.74 v 1.85 H 33.93 Z m 49.98,2.84 v 0.15 H 34.44 V 62.3 Z M 33.93,63.45 H 84.67 V 65.3 H 33.93 Z m 49.98,2.85 v 0.15 H 34.44 V 66.3 Z M 33.93,67.45 H 84.67 V 69.3 H 33.93 Z m 49.98,2.85 v 0.15 H 34.44 V 70.3 Z M 33.93,71.45 H 84.67 V 83.02 H 84.6 V 76.91 H 34.02 v 6.11 H 33.94 V 71.45 Z m 0,12.56 h 0.08 v 3.48 H 33.93 Z M 17.57,18.95 V 86.6 C 15.21,85.74 7.19,82.6 4.88,79 V 26.55 c 2.31,-3.6 10.33,-6.74 12.69,-7.6 z m 1,67.86 V 18.74 h 14.36 v 68.07 z m 237.08,35.26 H 20.91 v -16.19 h 234.73 v 16.19 z m 0,5.02 H 20.91 v -4.02 h 234.73 v 4.02 z m -1.51,-26.22 h 1.51 v 4.02 H 20.91 v -4.02 h 233.22 z m -1,-4.86 v 3.86 h -30.56 v -3.86 z m -2.63,-1 h -25.65 v -4.08 h 25.65 z m -0.12,-5.08 h -25.14 l 0.87,-1.44 h 12.24 V 85.6 h 4.06 v -4.01 h 0.21 l 7.77,8.34 z M 248.9,63.48 245,67.53 v -29.7 l 3.9,4.05 z m 6.18,-0.3 h -5.18 v -21 h 5.18 z m 9.03,6.61 h -8.03 v -4.12 h 8.03 z m 0,-5.12 h -8.03 V 40.69 h 8.03 z m 0,-24.97 h -8.03 v -4.12 h 8.03 z"
         id="path2" />
    </g>
  </g>
</svg>
